X:116
T: Holder Schatz, du brichst den Schwur der Treue (1-42), S. 108
N: K1090
O: Luxemburg
S: KINTZELE, Guillaume: An der Ucht, Bd. 1, Luxemburg 1926]
N: in der Quelle mit einer 2. Stimme versehen
R: Untreue]
M: 4/4
L: 1/16
K: D
F2A2 | D6A2A2A2B2A2 | G2F2E8
E2D2 | C6A2A2AAG2G2 | F8z2
D2D2B2 | B6B2d2d2c2B2 | B2A2A4z2
A2A2d2 | c6B2A2A2G2G2 | F8z2
D2D2B2 | B6B2d2d2c2B2 | B2A2A4z2
A2A2d2 | c6B2A2A2G2G2 | F8z4

@@@ Tune index: 8170
